Simply-Black-Circles/scalable/apps/software-properties.svg

<svg xmlns="http://www.w3.org/2000/svg" width="48" height="48" viewBox="0 0 12.7 12.7"><path fill="#1a1a1a" d="M6.34.07a6.29 6.29 0 0 0-6.29 6.3 6.29 6.29 0 0 0 6.3 6.28 6.29 6.29 0 0 0 6.28-6.29A6.29 6.29 0 0 0 6.34.07zm-.01.94a5.4 5.4 0 0 1 5.4 5.4 5.4 5.4 0 0 1-5.4 5.41 5.4 5.4 0 0 1-5.41-5.4A5.4 5.4 0 0 1 6.32 1zm-2.1.73a.21.21 0 0 0-.16.08L2.46 3.86a.2.2 0 0 0-.05.13V9.7c0 .12.1.21.21.21h7.43c.12 0 .21-.1.21-.21V3.99a.2.2 0 0 0-.04-.13l-1.6-2.04a.21.21 0 0 0-.17-.08H4.23zm.1.42h1.8V3.8h-3.1l1.3-1.65zm2.22 0h1.8l1.3 1.65h-3.1V2.16zM2.84 4.23h7V9.5h-7V4.23zm3.52.16c-1.05 0-1.95.65-2.31 1.57l-.06.15v.03c-.08.24-.13.5-.13.76a2.48 2.48 0 0 0 2.48 2.47c1.04 0 1.93-.64 2.3-1.55a2.45 2.45 0 0 0 .2-.96A2.48 2.48 0 0 0 6.36 4.4zm-.18.39v.83a4.59 4.59 0 0 1-.67-.08l.1-.2c.16-.3.36-.49.57-.55zm.35 0l.06.02c.18.08.36.26.52.53l.1.2c-.21.04-.44.07-.68.08v-.82zm-1.1.18a2.02 2.02 0 0 0-.27.5 2.85 2.85 0 0 1-.3-.11c.17-.16.36-.29.56-.39zm1.9.05l.24.11c.1.07.19.14.27.22a2.8 2.8 0 0 1-.29.1 2.11 2.11 0 0 0-.22-.43zm.74.6c.23.3.37.67.4 1.07h-.66a3.91 3.91 0 0 0-.14-.9c.14-.04.27-.1.4-.15v-.02zm-3.45.02l.42.16a3.9 3.9 0 0 0-.14.9h-.66c.03-.4.17-.76.38-1.06zm2.7.24c.07.24.12.52.13.82h-.92v-.73a4.79 4.79 0 0 0 .8-.1zm-1.93 0c.24.05.5.08.79.09v.72h-.92c.01-.29.06-.56.13-.81zM4.24 7.04h.66c.02.33.07.64.15.92a3.14 3.14 0 0 0-.4.15 2.1 2.1 0 0 1-.41-1.07zm1.02 0h.92v.75c-.28 0-.54.03-.79.08a3.58 3.58 0 0 1-.13-.83zm1.27 0h.92a3.58 3.58 0 0 1-.13.84 4.8 4.8 0 0 0-.79-.1v-.74zm1.28 0h.67a2.1 2.1 0 0 1-.41 1.08 3.08 3.08 0 0 0-.4-.15c.07-.29.12-.6.14-.93zm-1.63 1.1v.8c-.2-.06-.4-.25-.57-.54a2.2 2.2 0 0 1-.1-.19c.21-.04.44-.06.67-.07zm.35 0c.24.01.46.04.66.07a2.2 2.2 0 0 1-.09.19c-.16.3-.36.48-.57.55v-.81zm-1.37.15a2.03 2.03 0 0 0 .26.47 2.12 2.12 0 0 1-.53-.37 3 3 0 0 1 .27-.1zm2.38.01c.1.03.2.06.28.1a2.12 2.12 0 0 1-.53.36 2.1 2.1 0 0 0 .25-.46z"/></svg>

<?xml version="1.0" encoding="UTF-8" standalone="no"?>
<svg
   xmlns:dc="http://purl.org/dc/elements/1.1/"
   xmlns:cc="http://creativecommons.org/ns#"
   xmlns:rdf="http://www.w3.org/1999/02/22-rdf-syntax-ns#"
   xmlns:svg="http://www.w3.org/2000/svg"
   xmlns="http://www.w3.org/2000/svg"
   xmlns:sodipodi="http://sodipodi.sourceforge.net/DTD/sodipodi-0.dtd"
   xmlns:inkscape="http://www.inkscape.org/namespaces/inkscape"
   width="48"
   height="48"
   viewBox="0 0 12.7 12.7"
   version="1.1"
   id="svg4"
   sodipodi:docname="software-properties.svg"
   inkscape:version="0.92.4 (5da689c313, 2019-01-14)">
  <metadata
     id="metadata10">
    <rdf:RDF>
      <cc:Work
         rdf:about="">
        <dc:format>image/svg+xml</dc:format>
        <dc:type
           rdf:resource="http://purl.org/dc/dcmitype/StillImage" />
        <dc:title></dc:title>
      </cc:Work>
    </rdf:RDF>
  </metadata>
  <defs
     id="defs8" />
  <sodipodi:namedview
     pagecolor="#ffffff"
     bordercolor="#666666"
     borderopacity="1"
     objecttolerance="10"
     gridtolerance="10"
     guidetolerance="10"
     inkscape:pageopacity="0"
     inkscape:pageshadow="2"
     inkscape:window-width="1087"
     inkscape:window-height="480"
     id="namedview6"
     showgrid="false"
     inkscape:zoom="4.9166667"
     inkscape:cx="2.1355932"
     inkscape:cy="24"
     inkscape:window-x="0"
     inkscape:window-y="25"
     inkscape:window-maximized="0"
     inkscape:current-layer="svg4" />
  <path
     d="M 6.34,0.07 A 6.29,6.29 0 0 0 0.05,6.37 6.29,6.29 0 0 0 6.35,12.65 6.29,6.29 0 0 0 12.63,6.36 6.29,6.29 0 0 0 6.34,0.07 Z M 6.33,1.01 a 5.4,5.4 0 0 1 5.4,5.4 5.4,5.4 0 0 1 -5.4,5.41 A 5.4,5.4 0 0 1 0.92,6.42 5.4,5.4 0 0 1 6.32,1 Z M 4.23,1.74 A 0.21,0.21 0 0 0 4.07,1.82 L 2.46,3.86 A 0.2,0.2 0 0 0 2.41,3.99 V 9.7 c 0,0.12 0.1,0.21 0.21,0.21 h 7.43 c 0.12,0 0.21,-0.1 0.21,-0.21 V 3.99 A 0.2,0.2 0 0 0 10.22,3.86 L 8.62,1.82 A 0.21,0.21 0 0 0 8.45,1.74 Z m 0.1,0.42 h 1.8 V 3.8 h -3.1 l 1.3,-1.65 z m 2.22,0 h 1.8 l 1.3,1.65 H 6.55 Z M 2.84,4.23 h 7 V 9.5 h -7 z M 6.36,4.39 C 5.31,4.39 4.41,5.04 4.05,5.96 L 3.99,6.11 V 6.14 C 3.91,6.38 3.86,6.64 3.86,6.9 a 2.48,2.48 0 0 0 2.48,2.47 c 1.04,0 1.93,-0.64 2.3,-1.55 A 2.45,2.45 0 0 0 8.84,6.86 2.48,2.48 0 0 0 6.36,4.4 Z M 6.18,4.78 V 5.61 A 4.59,4.59 0 0 1 5.51,5.53 l 0.1,-0.2 C 5.77,5.03 5.97,4.84 6.18,4.78 Z m 0.35,0 0.06,0.02 c 0.18,0.08 0.36,0.26 0.52,0.53 l 0.1,0.2 C 7,5.57 6.77,5.6 6.53,5.61 V 4.79 Z M 5.43,4.96 A 2.02,2.02 0 0 0 5.16,5.46 2.85,2.85 0 0 1 4.86,5.35 C 5.03,5.19 5.22,5.06 5.42,4.96 Z m 1.9,0.05 0.24,0.11 c 0.1,0.07 0.19,0.14 0.27,0.22 A 2.8,2.8 0 0 1 7.55,5.44 2.11,2.11 0 0 0 7.33,5.01 Z m 0.74,0.6 c 0.23,0.3 0.37,0.67 0.4,1.07 H 7.81 A 3.91,3.91 0 0 0 7.67,5.78 C 7.81,5.74 7.94,5.68 8.07,5.63 Z M 4.62,5.63 5.04,5.79 A 3.9,3.9 0 0 0 4.9,6.69 H 4.24 C 4.27,6.29 4.41,5.93 4.62,5.63 Z m 2.7,0.24 C 7.39,6.11 7.44,6.39 7.45,6.69 H 6.53 V 5.96 a 4.79,4.79 0 0 0 0.8,-0.1 z m -1.93,0 c 0.24,0.05 0.5,0.08 0.79,0.09 V 6.68 H 5.26 C 5.27,6.39 5.32,6.12 5.39,5.87 Z M 4.24,7.04 H 4.9 C 4.92,7.37 4.97,7.68 5.05,7.96 A 3.14,3.14 0 0 0 4.65,8.11 2.1,2.1 0 0 1 4.24,7.04 Z m 1.02,0 H 6.18 V 7.79 C 5.9,7.79 5.64,7.82 5.39,7.87 A 3.58,3.58 0 0 1 5.26,7.04 Z m 1.27,0 H 7.45 A 3.58,3.58 0 0 1 7.32,7.88 4.8,4.8 0 0 0 6.53,7.78 Z m 1.28,0 H 8.48 A 2.1,2.1 0 0 1 8.07,8.12 3.08,3.08 0 0 0 7.67,7.97 C 7.74,7.68 7.79,7.37 7.81,7.04 Z m -1.63,1.1 v 0.8 C 5.98,8.88 5.78,8.69 5.61,8.4 A 2.2,2.2 0 0 1 5.51,8.21 C 5.72,8.17 5.95,8.15 6.18,8.14 Z m 0.35,0 C 6.77,8.15 6.99,8.18 7.19,8.21 A 2.2,2.2 0 0 1 7.1,8.4 C 6.94,8.7 6.74,8.88 6.53,8.95 Z M 5.16,8.29 A 2.03,2.03 0 0 0 5.42,8.76 2.12,2.12 0 0 1 4.89,8.39 3,3 0 0 1 5.16,8.29 Z M 7.54,8.3 c 0.1,0.03 0.2,0.06 0.28,0.1 A 2.12,2.12 0 0 1 7.29,8.76 2.1,2.1 0 0 0 7.54,8.3 Z"
     id="path2"
     inkscape:connector-curvature="0"
     style="fill:#1a1a1a" />
</svg>
